lib/brands/icons/v8-ignition.svg

<svg xmlns="http://www.w3.org/2000/svg" fill="none" aria-hidden="true" viewBox="0 0 48 48"><g id="v8-ignition-Icon"><g id="Group"><path id="Vector" fill="#4285F4" d="M23.9999 39.5311C32.3672 39.5311 39.1502 32.8431 39.1502 24.593C39.1502 16.3429 32.3672 9.65491 23.9999 9.65491C15.6326 9.65491 8.84961 16.3429 8.84961 24.593C8.84961 32.8431 15.6326 39.5311 23.9999 39.5311Z"/><path id="Vector_2" fill="#263238" d="M23.9999 39.29C15.6774 39.29 8.91712 32.6648 8.84961 24.4677V24.5834C8.84961 32.8288 15.6291 39.5215 23.9999 39.5215C32.3706 39.5215 39.1502 32.8288 39.1502 24.5834V24.4677C39.0827 32.6648 32.3224 39.29 23.9999 39.29Z" opacity="0.2"/><path id="Vector_3" fill="white" d="M23.9999 9.896C32.3224 9.896 39.0827 16.5212 39.1502 24.7184V24.6027C39.1502 16.3573 32.3706 9.66455 23.9999 9.66455C15.6291 9.66455 8.84961 16.3476 8.84961 24.593V24.7088C8.91712 16.5212 15.6774 9.896 23.9999 9.896Z" opacity="0.2"/><path id="Vector_4" fill="#424242" d="M20.4026 13.1942V17.6592L23.9997 22.4907L27.5968 17.5338V13.1942H31.8497L36.0061 5.99994H12.0029L16.1497 13.1942H20.4026Z"/><path id="Vector_5" fill="#9E9E9E" d="M19.4866 13.1943H16.1499L17.3361 15.2484H19.4866V13.1943ZM28.5131 15.2484H30.6637L31.8499 13.1943H28.5131V15.2484Z"/><path id="Vector_6" fill="#424242" d="M27.5972 34.8057V31.8644L24.0001 26.9268L20.403 31.8644V34.8057H16.1597L11.9937 42H36.0065L31.8597 34.8057H27.5972Z"/><path id="Vector_7" fill="#263238" d="M27.597 17.1674L23.9999 22.1339L20.4028 17.2831V17.6592L23.9999 22.4907L27.597 17.5338V17.1674Z" opacity="0.2"/><path id="Vector_8" fill="white" d="M12.0029 5.99994H35.9965L35.8518 6.25068H12.1476L12.0029 5.99994Z" opacity="0.2"/><path id="Vector_9" fill="#263238" d="M20.4026 32.2309L24.0094 27.2836L27.5968 32.2309V31.8644L24.0094 26.9268L20.4026 31.8548V32.2309ZM35.9965 41.9903H12.0029L12.1476 41.7299H35.8518L35.9965 41.9903Z" opacity="0.2"/><path id="Vector_10" fill="url(#paint0_linear_94_18919)" d="M35.9968 41.9904L35.8521 41.73L32.9301 36.6574C36.0257 34.4297 38.2245 31.0737 38.9188 27.2066L24.9162 13.0207L23.0356 35.153L29.6802 41.9904L36.0064 42.0001L35.9968 41.9904Z"/><path id="Vector_11" fill="#E8E8E8" d="M24.9161 13.0207L18.1655 26.5315H23.0645L23.0356 35.153L29.873 21.565H24.8872L24.9161 13.0207Z"/><path id="Vector_12" fill="white" d="M24.9162 13.0207L18.291 26.2904H23.0647L23.0357 34.9119L29.7478 21.565H24.8873L24.9162 13.0207Z"/><path id="Vector_13" fill="#9E9E9E" d="M20.4028 13.1943H16.1499L17.3361 15.2484H20.4028V13.1943ZM27.597 15.2484H30.6637L31.8499 13.1943H27.597V15.2484Z"/><path id="Vector_14" fill="#263238" d="M27.597 15.0071V15.2482H30.6637L30.8083 14.9975L27.597 15.0071ZM20.4028 15.0071L17.1914 14.9975L17.3361 15.2482H20.4028V15.0071Z" opacity="0.3"/><path id="Vector_15" fill="url(#paint1_radial_94_18919)" d="M39.1502 24.7088V24.593C39.1502 19.424 36.4789 14.8625 32.4285 12.1816L36.0063 5.99994H12.0031L15.5713 12.1816C11.5209 14.8625 8.84961 19.424 8.84961 24.593V24.7088C8.88818 29.6174 11.3377 33.9667 15.0795 36.667L12.1478 41.7299L12.0031 41.9903L11.9935 41.9999H35.9967L35.987 41.9903L35.8424 41.7299L32.9203 36.6573C36.6717 33.9667 39.1116 29.627 39.1502 24.7088Z"/></g></g><defs><linearGradient id="paint0_linear_94_18919" x1="18.8647" x2="42.7593" y1="19.0721" y2="26.25" gradientUnits="userSpaceOnUse"><stop stop-color="#231F20" stop-opacity="0.16"/><stop offset="1" stop-color="#231F20" stop-opacity="0"/></linearGradient><radialGradient id="paint1_radial_94_18919" cx="0" cy="0" r="1" gradientTransform="matrix(43.2039 0 0 43.2038 12.042 6.039)" gradientUnits="userSpaceOnUse"><stop stop-color="white" stop-opacity="0.1"/><stop offset="1" stop-color="white" stop-opacity="0"/></radialGradient></defs></svg>

<svg xmlns="http://www.w3.org/2000/svg" fill="none" aria-hidden="true" viewBox="0 0 48 48"><path fill="#4285F4" d="M24 39.531c8.367 0 15.15-6.688 15.15-14.938S32.367 9.655 24 9.655 8.85 16.343 8.85 24.593 15.633 39.531 24 39.531Z"/><path fill="#263238" d="M24 39.29c-8.323 0-15.083-6.625-15.15-14.822v.115c0 8.246 6.78 14.939 15.15 14.939 8.37 0 15.15-6.693 15.15-14.939v-.115C39.083 32.665 32.322 39.29 24 39.29Z" opacity=".2"/><path fill="#fff" d="M24 9.896c8.322 0 15.083 6.625 15.15 14.822v-.115c0-8.246-6.78-14.938-15.15-14.938-8.37 0-15.15 6.683-15.15 14.928v.116C8.917 16.52 15.677 9.896 24 9.896Z" opacity=".2"/><path fill="#424242" d="M20.403 13.194v4.465L24 22.491l3.597-4.957v-4.34h4.253L36.006 6H12.003l4.147 7.194h4.253Z"/><path fill="#9E9E9E" d="M19.487 13.194H16.15l1.186 2.054h2.15v-2.054Zm9.026 2.054h2.15l1.187-2.054h-3.337v2.054Z"/><path fill="#424242" d="M27.597 34.806v-2.942L24 26.927l-3.597 4.937v2.942H16.16L11.994 42h24.013l-4.147-7.194h-4.263Z"/><path fill="#263238" d="M27.597 17.167 24 22.134l-3.597-4.85v.375L24 22.491l3.597-4.957v-.367Z" opacity=".2"/><path fill="#fff" d="M12.003 6h23.993l-.144.25H12.148L12.003 6Z" opacity=".2"/><path fill="#263238" d="m20.403 32.23 3.606-4.946 3.588 4.947v-.367l-3.588-4.937-3.606 4.928v.376Zm15.593 9.76H12.003l.145-.26h23.704l.145.26Z" opacity=".2"/><path fill="url(#a)" d="m35.997 41.99-.145-.26-2.922-5.073c3.096-2.227 5.294-5.583 5.989-9.45L24.916 13.02l-1.88 22.132 6.644 6.837 6.326.01-.01-.01Z"/><path fill="#E8E8E8" d="m24.916 13.02-6.75 13.512h4.898l-.028 8.621 6.837-13.588h-4.986l.03-8.544Z"/><path fill="#fff" d="m24.916 13.02-6.625 13.27h4.774l-.03 8.622 6.713-13.347h-4.86l.028-8.544Z"/><path fill="#9E9E9E" d="M20.403 13.194H16.15l1.186 2.054h3.067v-2.054Zm7.194 2.054h3.067l1.186-2.054h-4.253v2.054Z"/><path fill="#263238" d="M27.597 15.007v.241h3.067l.144-.25-3.211.01Zm-7.194 0-3.212-.01.145.251h3.067v-.24Z" opacity=".3"/><path fill="url(#b)" d="M39.15 24.709v-.116c0-5.169-2.671-9.73-6.721-12.411L36.005 6H12.003l3.568 6.182c-4.05 2.68-6.721 7.242-6.721 12.411v.116c.038 4.908 2.488 9.258 6.23 11.958l-2.932 5.063-.145.26-.01.01h24.004l-.01-.01-.145-.26-2.922-5.073c3.752-2.69 6.192-7.03 6.23-11.948Z"/><defs><radialGradient id="b" cx="0" cy="0" r="1" gradientTransform="matrix(43.2039 0 0 43.2038 12.042 6.039)" gradientUnits="userSpaceOnUse"><stop stop-color="#fff" stop-opacity=".1"/><stop offset="1" stop-color="#fff" stop-opacity="0"/></radialGradient><linearGradient id="a" x1="18.865" x2="42.759" y1="19.072" y2="26.25" gradientUnits="userSpaceOnUse"><stop stop-color="#231F20" stop-opacity=".16"/><stop offset="1" stop-color="#231F20" stop-opacity="0"/></linearGradient></defs></svg>
